X:485
T:Macdonald's March
M:2/4
L:1/16
K:A
ed|c2Bc A2A2|cAce a2ef|=g2ae =g2de|=gdBA =GAB=G|
c2Bc A2A2|cAce a2ef|=gdBA =GABd|c2A2 A2:|
|:e2|AAa2 =g2ea|=gefe a2ef|=g2ae =g2de|=gdBA =GAB=G|
AAa2 =gea2|=gefe a2ef|=gdBA =GABd|c2A2 A2:|
|:E2|ABcd eaec|ABcd ecA2|=GABc d=gdB|=GABc dB=G2|
ABcd eaea|=gefe a2ef|=gdBA =GABd|c2A2 A2:|
